X: 1385
T: Muhayyerkürdî Sazsemâîsi
C: Sadi Işılay
O: Turkey
F: http://compmusic.upf.edu/node/140
N: muhayyerkurdi--sazsemaisi--aksaksemai----sadi_isilay
N: makam= muhayyerkurdi
N: form= sazsemaisi
N: usul= aksaksemai = 10/8
M: 10/8
L: 1/16
K: C _B   
Q: 1/4=120
%%MIDI tuningsystem comma53
A4 .a2(3de^3/4f (3ga_3/4b(3c'd'c' (3_baga4z2  | \
w:  1. HANE  | 
c'2b2 a2g2 fea2 gfef dec2  | 
w:   | 
c3/2B/AB cd(3cde (3fed(3cde (3fgac'a bgfa  | 
w:   | 
f2a2 d'2c'a bgf2 (3c'baa6  | a2z2 (3gfee2 z2z2 (3fedd6  | 
w:   |  TESLİM  | 
g2z2 (3fedd2 z2z2 (3edcc4z2  | c3/2B/AB cdef gab2 agf2 e2d2  | 
w:   |   | 
c3B A2_e2 dc(3dcB BAA4z2  | A4 e2e4eg ^3/4fga2 (3gfge2  | 
w:   |  2. HANE  | 
e3a ^ga_7/8b2 agf2 e2_7/8d4c2  | c4 _a2g2 f2e2 _3/4d2c/_2/4B/c/d/ cBA2  | 
w:   |   | 
_3/4B3c' bd'c'3/2b/ agfe fga4z2  | \
w:   | 
a2z2 (3gfee2 z2z2 (3fedd6  | 
w:  TESLİM  | 
g2z2 (3fedd2 z2z2 (3edcc4z2  | c3/2B/AB cdef gab2 agf2 e2d2  | 
w:   |   | 
c3B A2_e2 dc(3dcB BAA4z2  | A3c' _1/4bc'd'_e' d'c'_bg afge fdc2  | 
w:   |  3. HANE  | 
(3cBA(3Bcd (3efg(3bag (3fed(3cde (3fgab6  | 
w:   | 
b2a2 ^g2f4e4d4z2  | c3/2B/AB cdef gba3/2g/ fga4z2  | 
w:   |   | 
a2z2 (3gfee2 z2z2 (3fedd6  | g2z2 (3fedd2 z2z2 (3edcc4z2  | 
w:  TESLİM  |   | 
c3/2B/AB cdef gab2 agf2 e2d2  | c3B A2_e2 dc(3dcB BAA4z2  | 
w:   |   | 
z12  | A2zdcBA2zfed  | A2zdcBA2zbag  | 
w:  |  4. HANE  |   | 
f3/2e/fgabc'd'c'bag  | c'3/2b/agfga2f2d2  | 
w:   |   | 
A2zdcBA2zfed  | A2zdcBA2zbag  | f3/2e/fgabc'd'c'bag  | 
w:   |   |   | 
c'3/2b/agfga2z4  | (3abc'd'c'ba(3gabc'bag  | 
w:   |   | 
(3fgabagfe2z4  | (3defgfed(3cdefedc  | 
w:   |   | 
(3Bcd_edcAB2z4  | B3/2A/Bf_edc2B2A2  | \
w:   |   | 
b3/2a/gefga2z4  | 
w:   | 
z20  | a2z2 (3gfee2 z2z2 (3fedd6  | g2z2 (3fedd2 z2z2 (3edcc4z2  | 
w:  |  TESLİM  |   | 
c3/2B/AB cdef gab2 agf2 e2d2  | c3B A2_e2 dc(3dcB BAA4z2  | 
w:   |   | 
|


